src/22x22/places/folder-gruvbox-mix-blue-image-people.svg

<svg xmlns="http://www.w3.org/2000/svg" width="22" height="22" version="1">
 <rect style="opacity:0.2" width="20" height="12" x="1" y="8.5" rx="1" ry="1"/>
 <path style="fill:#266b79" d="M 1,16 C 1,16.554 1.446,17 2,17 H 20 C 20.554,17 21,16.554 21,16 V 5 C 21,4.446 20.554,4 20,4 H 11 C 9.5,4 9,2 7.5,2 H 2 C 1.446,2 1,2.446 1,3"/>
 <rect style="opacity:0.2" width="20" height="12" x="1" y="7.5" rx="1" ry="1"/>
 <rect style="fill:#dadec0" width="16" height="8" x="3" y="6" rx="1" ry="1"/>
 <rect style="fill:#80aa9e" width="20" height="12" x="1" y="8" rx="1" ry="1"/>
 <path style="opacity:0.1;fill:#dadec0" d="M 2,2 C 1.446,2 1,2.446 1,3 V 3.5 C 1,2.946 1.446,2.5 2,2.5 H 7.5 C 9,2.5 9.5,4.5 11,4.5 H 20 C 20.554,4.5 21,4.946 21,5.5 V 5 C 21,4.446 20.554,4 20,4 H 11 C 9.5,4 9,2 7.5,2 Z"/>
 <path style="fill:#374141" d="M 11,10 A 2,2 0 0 0 8.9999,12 2,2 0 0 0 11,14 2,2 0 0 0 13,12 2,2 0 0 0 11,10 Z M 9.3065,14.062 C 8.0431,14.278 7.1267,14.714 7.0116,15.236 7.0099,15.242 7.0128,15.249 7.0116,15.254 7.0076,15.274 7.0075,15.292 7.0058,15.312 7.0052,15.322 6.9999,15.328 6.9999,15.338 6.9998,15.341 6.9999,15.341 6.9999,15.344 V 16.732 C 6.9999,16.881 7.0883,17 7.1991,17 H 14.801 C 14.912,17 15,16.881 15,16.732 V 15.328 C 14.999,15.296 14.988,15.268 14.98,15.236 14.865,14.715 13.951,14.278 12.691,14.062 A 2,2 0 0 1 11,15 2,2 0 0 1 9.3065,14.062 Z"/>
</svg>

<?xml version="1.0" encoding="UTF-8"?>
<svg width="22" height="22" version="1" xmlns="http://www.w3.org/2000/svg">
 <rect x="1" y="8.5" width="20" height="12" rx="1" ry="1" opacity=".2"/>
 <path d="m1 16c0 0.554 0.446 1 1 1h18c0.554 0 1-0.446 1-1v-11c0-0.554-0.446-1-1-1h-9c-1.5 0-2-2-3.5-2h-5.5c-0.554 0-1 0.446-1 1" fill="#266b79"/>
 <rect x="1" y="7.5" width="20" height="12" rx="1" ry="1" opacity=".2"/>
 <rect x="3" y="6" width="16" height="8" rx="1" ry="1" fill="#dadec0"/>
 <rect x="1" y="8" width="20" height="12" rx="1" ry="1" fill="#80aa9e"/>
 <path d="m2 2c-0.554 0-1 0.446-1 1v0.5c0-0.554 0.446-1 1-1h5.5c1.5 0 2 2 3.5 2h9c0.554 0 1 0.446 1 1v-0.5c0-0.554-0.446-1-1-1h-9c-1.5 0-2-2-3.5-2z" fill="#dadec0" opacity=".1"/>
 <path d="m11 10a2 2 0 0 0-2.0001 2 2 2 0 0 0 2.0001 2 2 2 0 0 0 2-2 2 2 0 0 0-2-2zm-1.6935 4.062c-1.2634 0.216-2.1798 0.652-2.2949 1.174-0.0017 6e-3 0.0012 0.013 0 0.018-4e-3 0.02-0.0041 0.038-0.0058 0.058-6e-4 0.01-0.0059 0.016-0.0059 0.026-1e-4 3e-3 0 3e-3 0 6e-3v1.388c0 0.149 0.0884 0.268 0.1992 0.268h7.6019c0.111 0 0.199-0.119 0.199-0.268v-1.404c-1e-3 -0.032-0.012-0.06-0.02-0.092-0.115-0.521-1.029-0.958-2.289-1.174a2 2 0 0 1-1.691 0.938 2 2 0 0 1-1.6935-0.938z" fill="#374141"/>
</svg>
